src/assets/duotone/EmptyWalletRemove.svg

<?xml version="1.0" encoding="UTF-8"?>
<svg width="24" height="24" viewBox="0 0 24 24" xmlns="http://www.w3.org/2000/svg">
 <path d="m19.48 12.95h2.02v-1.44c0-2.07-1.69-3.76-3.76-3.76h-11.48c-2.07 0-3.76 1.69-3.76 3.76v6.73c0 2.07 1.69 3.76 3.76 3.76h11.48c2.07 0 3.76-1.69 3.76-3.76v-1.19h-1.9c-1.08 0-2.07-0.79-2.16-1.87-0.06-0.63 0.18-1.22 0.6-1.63 0.37-0.38 0.88-0.6 1.44-0.6zm-12.88 7.63c-0.15 0.14-0.34 0.21-0.53 0.21s-0.38-0.07-0.53-0.21l-0.53-0.53-0.55 0.55c-0.15 0.15-0.34 0.22-0.53 0.22s-0.38-0.07-0.53-0.22c-0.29-0.29-0.29-0.77 0-1.06l0.55-0.55-0.53-0.53c-0.29-0.29-0.29-0.77 0-1.06 0.3-0.29 0.77-0.29 1.07 0l0.52 0.53 0.5-0.51c0.3-0.29 0.77-0.29 1.07 0 0.29 0.3 0.29 0.77 0 1.07l-0.51 0.5 0.53 0.52c0.29 0.3 0.29 0.77 0 1.07z" opacity=".4"/>
 <path d="m14.85 3.95v3.8h-8.59c-2.07 0-3.76 1.69-3.76 3.76v-3.67c0-1.19 0.73-2.25 1.84-2.67l7.94-3c1.24-0.46 2.57 0.45003 2.57 1.78z"/>
 <path d="m22.56 13.97v2.06c0 0.55-0.44 1-1 1.02h-1.96c-1.08 0-2.07-0.79-2.16-1.87-0.06-0.63 0.18-1.22 0.6-1.63 0.37-0.38 0.88-0.6 1.44-0.6h2.08c0.56 0.02 1 0.47 1 1.02z"/>
 <path d="m14 12.75h-7c-0.41 0-0.75-0.34-0.75-0.75s0.34-0.75 0.75-0.75h7c0.41 0 0.75 0.34 0.75 0.75s-0.34 0.75-0.75 0.75z"/>
 <path d="m5 15c-0.94 0-1.81 0.33-2.5 0.88-0.92 0.73-1.5 1.86-1.5 3.12 0 0.75 0.21 1.46 0.58 2.06 0.69 1.16 1.96 1.94 3.42 1.94 1.01 0 1.93-0.37 2.63-1 0.31-0.26 0.58-0.58 0.79-0.94 0.37-0.6 0.58-1.31 0.58-2.06 0-2.21-1.79-4-4-4zm-1.58 3.46c-0.29-0.29-0.29-0.77 0-1.06 0.3-0.29 0.77-0.29 1.07 0l0.52 0.53 0.5-0.51c0.3-0.29 0.77-0.29 1.07 0 0.29 0.3 0.29 0.77 0 1.07l-0.51 0.5 0.53 0.52c0.29 0.3 0.29 0.77 0 1.07-0.15 0.14-0.34 0.21-0.53 0.21s-0.38-0.07-0.53-0.21l-0.53-0.53-0.55 0.55c-0.15 0.15-0.34 0.22-0.53 0.22s-0.38-0.07-0.53-0.22c-0.29-0.29-0.29-0.77 0-1.06l0.55-0.55-0.53-0.53z"/>
</svg>

<svg width="24" height="24" viewBox="0 0 24 24"  xmlns="http://www.w3.org/2000/svg">
<path opacity="0.4" d="M19.48 12.95H21.5V11.51C21.5 9.44001 19.81 7.75 17.74 7.75H6.26C4.19 7.75 2.5 9.44001 2.5 11.51V18.24C2.5 20.31 4.19 22 6.26 22H17.74C19.81 22 21.5 20.31 21.5 18.24V17.05H19.6C18.52 17.05 17.53 16.26 17.44 15.18C17.38 14.55 17.62 13.96 18.04 13.55C18.41 13.17 18.92 12.95 19.48 12.95ZM6.6 20.58C6.45 20.72 6.26 20.79 6.07 20.79C5.88 20.79 5.69 20.72 5.54 20.58L5.01 20.05L4.46 20.6C4.31 20.75 4.12 20.82 3.93 20.82C3.74 20.82 3.55 20.75 3.4 20.6C3.11 20.31 3.11 19.83 3.4 19.54L3.95 18.99L3.42 18.46C3.13 18.17 3.13 17.69 3.42 17.4C3.72 17.11 4.19 17.11 4.49 17.4L5.01 17.93L5.51 17.42C5.81 17.13 6.28 17.13 6.58 17.42C6.87 17.72 6.87 18.19 6.58 18.49L6.07 18.99L6.6 19.51C6.89 19.81 6.89 20.28 6.6 20.58Z" />
<path d="M14.85 3.95V7.74999H6.26C4.19 7.74999 2.5 9.44 2.5 11.51V7.84002C2.5 6.65002 3.23 5.58997 4.34 5.16997L12.28 2.16997C13.52 1.70997 14.85 2.62 14.85 3.95Z" />
<path d="M22.5598 13.97V16.03C22.5598 16.58 22.1198 17.03 21.5598 17.05H19.5998C18.5198 17.05 17.5298 16.26 17.4398 15.18C17.3798 14.55 17.6198 13.96 18.0398 13.55C18.4098 13.17 18.9198 12.95 19.4798 12.95H21.5598C22.1198 12.97 22.5598 13.42 22.5598 13.97Z" />
<path d="M14 12.75H7C6.59 12.75 6.25 12.41 6.25 12C6.25 11.59 6.59 11.25 7 11.25H14C14.41 11.25 14.75 11.59 14.75 12C14.75 12.41 14.41 12.75 14 12.75Z" />
<path d="M5 15C4.06 15 3.19 15.33 2.5 15.88C1.58 16.61 1 17.74 1 19C1 19.75 1.21 20.46 1.58 21.06C2.27 22.22 3.54 23 5 23C6.01 23 6.93 22.63 7.63 22C7.94 21.74 8.21 21.42 8.42 21.06C8.79 20.46 9 19.75 9 19C9 16.79 7.21 15 5 15ZM3.42 18.46C3.13 18.17 3.13 17.69 3.42 17.4C3.72 17.11 4.19 17.11 4.49 17.4L5.01 17.93L5.51 17.42C5.81 17.13 6.28 17.13 6.58 17.42C6.87 17.72 6.87 18.19 6.58 18.49L6.07 18.99L6.6 19.51C6.89 19.81 6.89 20.28 6.6 20.58C6.45 20.72 6.26 20.79 6.07 20.79C5.88 20.79 5.69 20.72 5.54 20.58L5.01 20.05L4.46 20.6C4.31 20.75 4.12 20.82 3.93 20.82C3.74 20.82 3.55 20.75 3.4 20.6C3.11 20.31 3.11 19.83 3.4 19.54L3.95 18.99L3.42 18.46Z" />
</svg>
